!!!!SEGMENT: pl-kozmzk--mzk-m-137--008_cwiklicz-boleslaw-jan--oj-ty-rzeko-oj-ty-sina.krn
!!!cenid: 18xx:2966
!!!COM: Ćwiklicz, Bolesław Jan
!!!COM-rismid: pe41023611
!!!CDT: ~1800-~1899
!!!CNT: Polish
!!!OTL: Oj, ty rzeko, oj, ty sina
!!!PDT:
!!!AGN: Secular
!!!SMS-siglum: PL-KOZmzk
!!!SMS-shelfmark: mzk/m/137
!!!SMS-shelfwork: 008 W
!!!SMS-variant:
!!!SMS-altvar:
!!!NIFC-rismid: 1001084050
!!!URL-scan: https://repozytorium.nifc.pl/islandora/object/pl-kozmzk%3A1738/datastream/PDF/view
!!!ONB-nifc:
**kern	**kern	**text	**text	**dynam
*part1	*part1	*part1	*part1	*part1
*staff2	*staff1	*staff1	*staff1	*
*Iempty	*Iempty	*	*	*
*I"	*I"	*	*	*
*>[A,A1,A,A2]	*>[A,A1,A,A2]	*	*	*
*>A	*>A	*	*	*
*clefF4	*clefG2	*	*	*
*k[b-e-a-]	*k[b-e-a-]	*	*	*
*c:	*c:	*	*	*
*M3/4	*M3/4	*	*	*
=1	=1	=1	=1	=1
*^	*^	*	*	*
!	!	!LO:TX:a:t=Galicyjskiej dziatwie.	!	!	!	!
!	!	!LO:TX:a:t=8. Oj, ty rze-ko, oj, ty sina...	!	!	!	!
!LO:TX:a:t=– mazurska.	!	!LO:TX:a:t=Słowa M. Konopnickiej	!	!	!	!
8E-/L	8C\L	8gg/L	8g\L 8cc	Oj,	Nie	p p
8F/J	8C\J	8dd/J	8g\J 8bn	ty	na	.
4G/	4C\	4ee-/	(4cc\	rze-	za-	.
4F/	4C\	4dd/	8b-X\L)	-ko,	-wsze	.
.	.	.	8a-\J	.	.	.
=2	=2	=2	=2	=2	=2	=2
!	!	!	!	!	!	!LO:HP:b
8E-/L	8C\L	8cc/L	8g\L	Oj	sło-	<
8D/J	8C\J	8bn/J	8g\J	ty	-nko	.
(8E-/L	4C\	4cc/	4g\	si-	ga-	.
8F/J)	.	.	.	.	.	.
(8G/L	4C\	4ee-/	4cc\	-na,	-śnie,	.
8B-/J)	.	.	.	.	.	.
=3	=3	=3	=3	=3	=3	=3
8A-/L	8C\L	8gg/L	8cc\L	Lo-	Nie	.
8A-/J	8D\J	8ff/J	8cc\J	-dy	na	.
(8G/L	(8E-\L	(4aa-/	(4cc\	to-	za-	[
8F/J)	8D\J)	.	.	.	.	.
!	!	!	!	!	!	!LO:HP:b
4c/	(8E-\L	8gg/L)	8b-\L)	.	.	>
.	8F\J)	8ff/J	8a-\J	-bie	-wsze	.
=4	=4	=4	=4	=4	=4	=4
8c/L	8C\L	8ee-/L	8g\L	nie	zie-	.
8Bn/J	8D\J	8dd/J	8g\J	no-	-mia	.
!	!	!LO:TX:a:t=muzyka B. Ćwiklicza	!	!	!	!
4G/	4E-\	4cc/	4g\	-wi-	za-	.
4F/	4D\	4g/	4g\	-na;	-śnie,	.
=5	=5	=5	=5	=5	=5	=5
8E-/L	8C\L	8gg/L	8g\L 8cc	Co	Nie	]
8F/J	8C\J	8dd/J	8g\J 8bn	rok	na	.
(8G/L	4C\	4ee-/	(4cc\	zi-	za-	.
8F#X/J)	.	.	.	.	.	.
(8G/L	4C\	4dd/	8b-X\L)	-ma	wsze	.
8Fn/J)	.	.	8a-\J	.	.	.
!!LO:PB:g=original
=6||	=6||	=6||	=6||	=6||	=6||	=6||
8E-/L	8C\L	8cc/L	8g\L	Wię-	wię-	<
8D/J	8C\J	8bn/J	8g\J	-zi	-dnie	.
(8E-/L	4C\	4cc/	4g\	cie-	kwie-	.
8F/J)	.	.	.	.	.	.
(8G/L	4C\	4ee-/	4cc\	-bie,	-cie,	.
8B-/J)	.	.	.	.	.	.
=7	=7	=7	=7	=7	=7	=7
8A-/L	8C\L	8gg/L	8cc\L	Co	Nie	.
8A-/J	8D\J	8ff/J	8cc\J	rok	na	.
(8G/L	(8E-\L	(<4aa-/	(4cc\	wi-	za-	[
8F/J)	8D\J)	.	.	.	.	.
4c/	(8E-\L	8gg/L)	8b-\L)	.	.	>
.	8F\J)	8ff/J	8a-\J	-chry	-wsze	.
=8	=8	=8	=8	=8	=8	=8
8c/L	8C\L 8F	8ee-/L	8g\L	mkną	mróz	.
8c/J	8C\J 8F#X	8dd/J	8an\J	po	na	.
4Bn/	4C\ 4Fn	4gg/	4g\	nie-	świe-	.
4c/	4C\ 4E-	4cc/	4g\	-bie	-cie.	]
*v	*v	*	*	*	*	*
*	*v	*v	*	*	*
=9||	=9||	=9||	=9||	=9||
*k[]	*k[]	*	*	*
*	*	*	*	*
*^	*^	*	*	*
*	*	*	*	*	*	*^
!	!	!	!	!	!	!LO:DY:a	!
8G/L	8C\L 8D	8b/L	8g\L	Aż	Przy-	mf	mf
8G/J	8C\J 8D	8dd/J	8b\J	znów	-jdzie	.	.
4F#X/	4C\ 4D	4a/	4a\	przy-	wio-	.	.
4Fn/	4C\ 4D	4b/	4g\	-jdzie	-sna,	.	.
*	*	*	*	*	*	*v	*v
=10	=10	=10	=10	=10	=10	=10
8E/L	8C\L	(12cc/L	8g\L	Wio-	Przy-	.
.	.	12b/)	.	.	.	.
8F/J	8C\J	.	8f\J	.	.	.
.	.	12a/J	.	-sna	-jdzie	.
(8E/L	4C\	4g/	4g\	Ró-	Ró-	.
8c/J)	.	.	.	.	.	.
8B/L	4C\	4ee/	4cc\	-ża	-ża	.
8A/J	.	.	.	.	.	.
!!LO:LB:g=original
=11	=11	=11	=11	=11	=11	=11
*>A1	*>A1	*>A1	*>A1	*	*	*
8G/L	8C\L	(12dd/L	8a\L	I	.	<
.	.	12ee/)	.	.	.	.
8D/J	8C\J	.	8a\J	.	.	.
.	.	12ff/J	.	po-	.	.
(8G/L	4C\	(4ee/	(4cc\	-pły-	.	.
8F#X/J)	.	.	.	.	.	[
4G/	8D\L	8dd/L)	8b\L)	-niesz	.	.
.	8E\J	8cc/J	8a\J	.	.	.
=12	=12	=12	=12	=12	=12	=12
8G/L	8D\L	8b/L	8g\L	Het	.	.
8A/J	8C#X\J 8E	8a/J	8g\J	do	.	>
(8B/L	4Cn\ 4D	4dd/	4f#X\	mo-	.	.
8A/J)	.	.	.	.	.	.
!	!	!LO:TX:t=P:problem:po dźwięku oznaczenie tonacji b- ee- a-	!	!	!	!
4G/	4BB\ 4D	4g/	4g\	-rza!	.	]
=13:|!	=13:|!	=13:|!	=13:|!	=13:|!	=13:|!	=13:|!
*>A2	*>A2	*>A2	*>A2	*>A2	*	*
*	*	*	*^	*	*	*
8F/L	8C\L	(12dd/L	8a\L	4ryy	Pó-	.	<
.	.	12ee/)	.	.	.	.	.
8D/J	8C\J	.	8a\J	.	.	.	.
.	.	12ff/J	.	.	-jdą	.	.
!	!	!	!	!LO:TX:t=P:problem:błędne wyświetlanie łuku	!	!	!
4E/	4C\	4gg/	4g\	(8dd\L	rze-	.	.
.	.	.	.	8b\J)	.	.	.
!	!	!	!	!LO:TX:t=P:problem:błędne wyświetlanie łuku	!	!	!
4F/	4C\	4ff/	4cc\	(8a\L	-ki	.	[
.	.	.	.	8a-X\J)	.	.	.
*	*	*	*v	*v	*	*	*
=14	=14	=14	=14	=14	=14	=14
8G/L	8C\L	8ee/L	8g\L 8cc	Het	.	.
8F#X/J	8C\J	8dd/J	8a\J 8cc	do	.	.
4Fn/	4C\	4gg/	4g\ 4b	mo-	.	>
4E/	4C\	4cc/	4g\ 4cc	-rza!	.	]]
*v	*v	*	*	*	*	*
*	*v	*v	*	*	*
==	==	==	==	==
*-	*-	*-	*-	*-
!!!system-decoration: [(s1,s2)]
!!!ENC: Marcin Jachim
!!!END: 2021-08-11
!!!ENC: Kamil Watkowski
!!!END: 2021-09-08
!!!RDF**kern: > = above
!!!RDF**kern: < = below
